apps/web/assets/svg/message.svg

<svg
	width="24"
	height="24"
	viewBox="0 0 24 24"
	fill="none"
	xmlns="http://www.w3.org/2000/svg"
>
	<path
		d="M17 5H6.33333C5.97971 5 5.64057 5.14048 5.39052 5.39052C5.14048 5.64057 5 5.97971 5 6.33333V18.3333L7.66667 15.6667H17C17.3536 15.6667 17.6928 15.5262 17.9428 15.2761C18.1929 15.0261 18.3333 14.687 18.3333 14.3333V6.33333C18.3333 5.97971 18.1929 5.64057 17.9428 5.39052C17.6928 5.14048 17.3536 5 17 5ZM7.66667 9.66667H15.6667V11H7.66667V9.66667ZM13 13H7.66667V11.6667H13V13ZM15.6667 9H7.66667V7.66667H15.6667"
		fill="currentColor"
	/>
</svg>

<svg xmlns="http://www.w3.org/2000/svg" width="24" height="24" fill="none" viewBox="0 0 24 24"><path fill="currentColor" d="M17 5H6.333A1.333 1.333 0 0 0 5 6.333v12l2.667-2.666H17a1.333 1.333 0 0 0 1.333-1.334v-8A1.333 1.333 0 0 0 17 5ZM7.667 9.667h8V11h-8V9.667ZM13 13H7.667v-1.333H13V13Zm2.667-4h-8V7.667h8"/></svg>
